Newaita/actions/scalable/view-calendar-day.svg

<?xml version="1.0" encoding="UTF-8"?>
<svg xmlns="http://www.w3.org/2000/svg" xmlns:xlink="http://www.w3.org/1999/xlink" width="512pt" height="512pt" viewBox="0 0 512 512" version="1.1">
<defs>
<filter id="alpha" filterUnits="objectBoundingBox" x="0%" y="0%" width="100%" height="100%">
  <feColorMatrix type="matrix" in="SourceGraphic" values="0 0 0 0 1 0 0 0 0 1 0 0 0 0 1 0 0 0 1 0"/>
</filter>
<mask id="mask0">
  <g filter="url(#alpha)">
<rect x="0" y="0" width="512" height="512" style="fill:rgb(0%,0%,0%);fill-opacity:0.988235;stroke:none;"/>
  </g>
</mask>
<clipPath id="clip1">
  <rect x="0" y="0" width="512" height="512"/>
</clipPath>
<g id="surface5" clip-path="url(#clip1)">
<path style=" stroke:none;fill-rule:nonzero;fill:rgb(25.882354%,25.882354%,25.882354%);fill-opacity:1;" d="M 21.167969 131.011719 L 21.167969 448.542969 C 21.167969 471.996094 40.050781 490.878906 63.507812 490.878906 L 444.542969 490.878906 C 467.996094 490.878906 486.878906 471.996094 486.878906 448.542969 L 486.878906 131.011719 L 455.125 131.011719 L 455.125 437.957031 C 455.125 449.6875 445.683594 459.125 433.957031 459.125 L 74.089844 459.125 C 62.363281 459.125 52.921875 449.6875 52.921875 437.957031 L 52.921875 131.011719 Z M 21.167969 131.011719 "/>
</g>
<mask id="mask1">
  <g filter="url(#alpha)">
<rect x="0" y="0" width="512" height="512" style="fill:rgb(0%,0%,0%);fill-opacity:0.988235;stroke:none;"/>
  </g>
</mask>
<clipPath id="clip2">
  <rect x="0" y="0" width="512" height="512"/>
</clipPath>
<g id="surface8" clip-path="url(#clip2)">
<path style=" stroke:none;fill-rule:nonzero;fill:rgb(61.176473%,80.000001%,39.607844%);fill-opacity:1;" d="M 63.507812 25.167969 C 40.050781 25.167969 21.167969 44.050781 21.167969 67.507812 L 21.167969 131.011719 L 486.878906 131.011719 L 486.878906 67.507812 C 486.878906 44.050781 467.996094 25.167969 444.542969 25.167969 Z M 95.257812 46.335938 C 112.851562 46.335938 127.011719 60.5 127.011719 78.089844 C 127.011719 95.683594 112.851562 109.84375 95.257812 109.84375 C 77.667969 109.84375 63.507812 95.683594 63.507812 78.089844 C 63.507812 60.5 77.667969 46.335938 95.257812 46.335938 Z M 412.789062 46.335938 C 430.378906 46.335938 444.542969 60.5 444.542969 78.089844 C 444.542969 95.683594 430.378906 109.84375 412.789062 109.84375 C 395.199219 109.84375 381.035156 95.683594 381.035156 78.089844 C 381.035156 60.5 395.199219 46.335938 412.789062 46.335938 Z M 412.789062 46.335938 "/>
</g>
</defs>
<g id="surface1">
<use xlink:href="#surface5" mask="url(#mask0)"/>
<use xlink:href="#surface8" mask="url(#mask1)"/>
<path style=" stroke:none;fill-rule:nonzero;fill:rgb(25.882354%,25.882354%,25.882354%);fill-opacity:1;" d="M 95.257812 173.351562 L 127.011719 173.351562 C 132.859375 173.351562 137.597656 178.089844 137.597656 183.933594 L 137.597656 215.6875 C 137.597656 221.53125 132.859375 226.273438 127.011719 226.273438 L 95.257812 226.273438 C 89.414062 226.273438 84.675781 221.53125 84.675781 215.6875 L 84.675781 183.933594 C 84.675781 178.089844 89.414062 173.351562 95.257812 173.351562 Z M 95.257812 173.351562 "/>
<path style=" stroke:none;fill-rule:nonzero;fill:rgb(25.882354%,25.882354%,25.882354%);fill-opacity:1;" d="M 190.519531 173.351562 L 222.269531 173.351562 C 228.117188 173.351562 232.855469 178.089844 232.855469 183.933594 L 232.855469 215.6875 C 232.855469 221.53125 228.117188 226.273438 222.269531 226.273438 L 190.519531 226.273438 C 184.671875 226.273438 179.933594 221.53125 179.933594 215.6875 L 179.933594 183.933594 C 179.933594 178.089844 184.671875 173.351562 190.519531 173.351562 Z M 190.519531 173.351562 "/>
<path style=" stroke:none;fill-rule:nonzero;fill:rgb(61.176473%,80.000001%,39.607844%);fill-opacity:1;" d="M 279.425781 162.765625 L 323.882812 162.765625 C 332.066406 162.765625 338.699219 169.398438 338.699219 177.582031 L 338.699219 222.039062 C 338.699219 230.222656 332.066406 236.855469 323.882812 236.855469 L 279.425781 236.855469 C 271.242188 236.855469 264.609375 230.222656 264.609375 222.039062 L 264.609375 177.582031 C 264.609375 169.398438 271.242188 162.765625 279.425781 162.765625 Z M 279.425781 162.765625 "/>
<path style=" stroke:none;fill-rule:nonzero;fill:rgb(25.882354%,25.882354%,25.882354%);fill-opacity:1;" d="M 381.035156 173.351562 L 412.789062 173.351562 C 418.636719 173.351562 423.375 178.089844 423.375 183.933594 L 423.375 215.6875 C 423.375 221.53125 418.636719 226.273438 412.789062 226.273438 L 381.035156 226.273438 C 375.191406 226.273438 370.453125 221.53125 370.453125 215.6875 L 370.453125 183.933594 C 370.453125 178.089844 375.191406 173.351562 381.035156 173.351562 Z M 381.035156 173.351562 "/>
<path style=" stroke:none;fill-rule:nonzero;fill:rgb(25.882354%,25.882354%,25.882354%);fill-opacity:1;" d="M 95.257812 268.609375 L 127.011719 268.609375 C 132.859375 268.609375 137.597656 273.347656 137.597656 279.191406 L 137.597656 310.945312 C 137.597656 316.792969 132.859375 321.53125 127.011719 321.53125 L 95.257812 321.53125 C 89.414062 321.53125 84.675781 316.792969 84.675781 310.945312 L 84.675781 279.191406 C 84.675781 273.347656 89.414062 268.609375 95.257812 268.609375 Z M 95.257812 268.609375 "/>
<path style=" stroke:none;fill-rule:nonzero;fill:rgb(25.882354%,25.882354%,25.882354%);fill-opacity:1;" d="M 190.519531 268.609375 L 222.269531 268.609375 C 228.117188 268.609375 232.855469 273.347656 232.855469 279.191406 L 232.855469 310.945312 C 232.855469 316.792969 228.117188 321.53125 222.269531 321.53125 L 190.519531 321.53125 C 184.671875 321.53125 179.933594 316.792969 179.933594 310.945312 L 179.933594 279.191406 C 179.933594 273.347656 184.671875 268.609375 190.519531 268.609375 Z M 190.519531 268.609375 "/>
<path style=" stroke:none;fill-rule:nonzero;fill:rgb(25.882354%,25.882354%,25.882354%);fill-opacity:1;" d="M 285.777344 268.609375 L 317.53125 268.609375 C 323.375 268.609375 328.113281 273.347656 328.113281 279.191406 L 328.113281 310.945312 C 328.113281 316.792969 323.375 321.53125 317.53125 321.53125 L 285.777344 321.53125 C 279.933594 321.53125 275.191406 316.792969 275.191406 310.945312 L 275.191406 279.191406 C 275.191406 273.347656 279.933594 268.609375 285.777344 268.609375 Z M 285.777344 268.609375 "/>
<path style=" stroke:none;fill-rule:nonzero;fill:rgb(25.882354%,25.882354%,25.882354%);fill-opacity:1;" d="M 381.035156 268.609375 L 412.789062 268.609375 C 418.636719 268.609375 423.375 273.347656 423.375 279.191406 L 423.375 310.945312 C 423.375 316.792969 418.636719 321.53125 412.789062 321.53125 L 381.035156 321.53125 C 375.191406 321.53125 370.453125 316.792969 370.453125 310.945312 L 370.453125 279.191406 C 370.453125 273.347656 375.191406 268.609375 381.035156 268.609375 Z M 381.035156 268.609375 "/>
<path style=" stroke:none;fill-rule:nonzero;fill:rgb(25.882354%,25.882354%,25.882354%);fill-opacity:1;" d="M 95.257812 363.867188 L 127.011719 363.867188 C 132.859375 363.867188 137.597656 368.605469 137.597656 374.453125 L 137.597656 406.207031 C 137.597656 412.050781 132.859375 416.789062 127.011719 416.789062 L 95.257812 416.789062 C 89.414062 416.789062 84.675781 412.050781 84.675781 406.207031 L 84.675781 374.453125 C 84.675781 368.605469 89.414062 363.867188 95.257812 363.867188 Z M 95.257812 363.867188 "/>
<path style=" stroke:none;fill-rule:nonzero;fill:rgb(25.882354%,25.882354%,25.882354%);fill-opacity:1;" d="M 190.519531 363.867188 L 222.269531 363.867188 C 228.117188 363.867188 232.855469 368.605469 232.855469 374.453125 L 232.855469 406.207031 C 232.855469 412.050781 228.117188 416.789062 222.269531 416.789062 L 190.519531 416.789062 C 184.671875 416.789062 179.933594 412.050781 179.933594 406.207031 L 179.933594 374.453125 C 179.933594 368.605469 184.671875 363.867188 190.519531 363.867188 Z M 190.519531 363.867188 "/>
<path style=" stroke:none;fill-rule:nonzero;fill:rgb(25.882354%,25.882354%,25.882354%);fill-opacity:1;" d="M 285.777344 363.867188 L 317.53125 363.867188 C 323.375 363.867188 328.113281 368.605469 328.113281 374.453125 L 328.113281 406.207031 C 328.113281 412.050781 323.375 416.789062 317.53125 416.789062 L 285.777344 416.789062 C 279.933594 416.789062 275.191406 412.050781 275.191406 406.207031 L 275.191406 374.453125 C 275.191406 368.605469 279.933594 363.867188 285.777344 363.867188 Z M 285.777344 363.867188 "/>
<path style=" stroke:none;fill-rule:nonzero;fill:rgb(25.882354%,25.882354%,25.882354%);fill-opacity:1;" d="M 381.035156 363.867188 L 412.789062 363.867188 C 418.636719 363.867188 423.375 368.605469 423.375 374.453125 L 423.375 406.207031 C 423.375 412.050781 418.636719 416.789062 412.789062 416.789062 L 381.035156 416.789062 C 375.191406 416.789062 370.453125 412.050781 370.453125 406.207031 L 370.453125 374.453125 C 370.453125 368.605469 375.191406 363.867188 381.035156 363.867188 Z M 381.035156 363.867188 "/>
</g>
</svg>

<svg xmlns="http://www.w3.org/2000/svg" xmlns:xlink="http://www.w3.org/1999/xlink" width="512pt" height="512pt" viewBox="0 0 512 512"><defs><filter id="a" filterUnits="objectBoundingBox" x="0%" y="0%" width="100%" height="100%"><feColorMatrix in="SourceGraphic" values="0 0 0 0 1 0 0 0 0 1 0 0 0 0 1 0 0 0 1 0"/></filter><mask id="e"><path fill-opacity=".988" d="M0 0h512v512H0z" filter="url(#a)"/></mask><clipPath id="b"><path d="M0 0h512v512H0z"/></clipPath><g id="d" clip-path="url(#b)"><path d="M21.168 131.012v317.531c0 23.453 18.883 42.336 42.34 42.336h381.035c23.453 0 42.336-18.883 42.336-42.336V131.012h-31.754v306.945a21.12 21.12 0 0 1-21.168 21.168H74.09a21.12 21.12 0 0 1-21.168-21.168V131.012zm0 0" fill="#424242"/></g><mask id="g"><path fill-opacity=".988" d="M0 0h512v512H0z" filter="url(#a)"/></mask><clipPath id="c"><path d="M0 0h512v512H0z"/></clipPath><g id="f" clip-path="url(#c)"><path d="M63.508 25.168c-23.457 0-42.34 18.883-42.34 42.34v63.504h465.71V67.508c0-23.457-18.882-42.34-42.335-42.34zm31.75 21.168c17.594 0 31.754 14.164 31.754 31.754a31.682 31.682 0 0 1-31.754 31.754c-17.59 0-31.75-14.16-31.75-31.754 0-17.59 14.16-31.754 31.75-31.754zm317.531 0c17.59 0 31.754 14.164 31.754 31.754 0 17.594-14.164 31.754-31.754 31.754-17.59 0-31.754-14.16-31.754-31.754 0-17.59 14.164-31.754 31.754-31.754zm0 0" fill="#9ccc65"/></g></defs><use xlink:href="#d" mask="url(#e)"/><use xlink:href="#f" mask="url(#g)"/><path d="M95.258 173.352h31.754c5.847 0 10.586 4.738 10.586 10.582v31.754c0 5.843-4.739 10.585-10.586 10.585H95.258c-5.844 0-10.582-4.742-10.582-10.585v-31.754c0-5.844 4.738-10.582 10.582-10.582zm0 0M190.52 173.352h31.75c5.847 0 10.585 4.738 10.585 10.582v31.754c0 5.843-4.738 10.585-10.585 10.585h-31.75c-5.848 0-10.586-4.742-10.586-10.585v-31.754c0-5.844 4.738-10.582 10.586-10.582zm0 0" fill="#424242"/><path d="M279.426 162.766h44.457c8.183 0 14.816 6.632 14.816 14.816v44.457c0 8.184-6.633 14.816-14.816 14.816h-44.457c-8.184 0-14.817-6.632-14.817-14.816v-44.457c0-8.184 6.633-14.816 14.817-14.816zm0 0" fill="#9ccc65"/><path d="M381.035 173.352h31.754c5.848 0 10.586 4.738 10.586 10.582v31.754c0 5.843-4.738 10.585-10.586 10.585h-31.754c-5.844 0-10.582-4.742-10.582-10.585v-31.754c0-5.844 4.738-10.582 10.582-10.582zm0 0M95.258 268.61h31.754c5.847 0 10.586 4.738 10.586 10.581v31.754c0 5.848-4.739 10.586-10.586 10.586H95.258c-5.844 0-10.582-4.738-10.582-10.586v-31.754c0-5.843 4.738-10.582 10.582-10.582zm0 0M190.52 268.61h31.75c5.847 0 10.585 4.738 10.585 10.581v31.754c0 5.848-4.738 10.586-10.585 10.586h-31.75c-5.848 0-10.586-4.738-10.586-10.586v-31.754c0-5.843 4.738-10.582 10.586-10.582zm0 0M285.777 268.61h31.754c5.844 0 10.582 4.738 10.582 10.581v31.754c0 5.848-4.738 10.586-10.582 10.586h-31.754c-5.843 0-10.586-4.738-10.586-10.586v-31.754c0-5.843 4.743-10.582 10.586-10.582zm0 0M381.035 268.61h31.754c5.848 0 10.586 4.738 10.586 10.581v31.754c0 5.848-4.738 10.586-10.586 10.586h-31.754c-5.844 0-10.582-4.738-10.582-10.586v-31.754c0-5.843 4.738-10.582 10.582-10.582zm0 0M95.258 363.867h31.754c5.847 0 10.586 4.738 10.586 10.586v31.754c0 5.844-4.739 10.582-10.586 10.582H95.258c-5.844 0-10.582-4.738-10.582-10.582v-31.754c0-5.848 4.738-10.586 10.582-10.586zm0 0M190.52 363.867h31.75c5.847 0 10.585 4.738 10.585 10.586v31.754c0 5.844-4.738 10.582-10.585 10.582h-31.75c-5.848 0-10.586-4.738-10.586-10.582v-31.754c0-5.848 4.738-10.586 10.586-10.586zm0 0M285.777 363.867h31.754c5.844 0 10.582 4.738 10.582 10.586v31.754c0 5.844-4.738 10.582-10.582 10.582h-31.754c-5.843 0-10.586-4.738-10.586-10.582v-31.754c0-5.848 4.743-10.586 10.586-10.586zm0 0M381.035 363.867h31.754c5.848 0 10.586 4.738 10.586 10.586v31.754c0 5.844-4.738 10.582-10.586 10.582h-31.754c-5.844 0-10.582-4.738-10.582-10.582v-31.754c0-5.848 4.738-10.586 10.582-10.586zm0 0" fill="#424242"/></svg>
